X:124
T:True Briton, The
M:C |
L:1/8
B:Thompson's Compleat Collection of 200 Favourite Country Dances, vol. 2 (London, 1765)
Z:Transcribed and edited by Flynn Titford-Mock, 2007
Z:abc's:AK/Fiddler's Companion
K:A
Ac"tr"BA Ac"tr"BA | afec BABc | Ac"tr"BA Ac"tr"BA | BABc fefa :|
|: ecaf ecBA | ecaf {f}e2 {d}c2 | ecaf ecBA | BABc A4 :|

